files/opera-ads.svg

<svg clip-rule="evenodd" fill-rule="evenodd" stroke-linejoin="round" stroke-miterlimit="2" viewBox="0 0 560 400" xmlns="http://www.w3.org/2000/svg" xmlns:xlink="http://www.w3.org/1999/xlink"><linearGradient id="a" gradientTransform="scale(1 -1)" gradientUnits="userSpaceOnUse" x1="0" x2="1" y1="0" y2="0"><stop offset="0" stop-color="#9c0000"/><stop offset=".7" stop-color="#ff4b4b"/><stop offset="1" stop-color="#ff4b4b"/></linearGradient><linearGradient id="b" gradientTransform="scale(1 -1)" gradientUnits="userSpaceOnUse" x1="0" x2="1" y1="0" y2="0"><stop offset="0" stop-color="#ff1b2d"/><stop offset=".3" stop-color="#ff1b2d"/><stop offset="1" stop-color="#a70014"/></linearGradient><path d="m0 0h560v400h-560z" fill="none"/><g fill-rule="nonzero"><path d="m0 28.228c-11.121 0-20.168-9.944-20.168-22.171 0-12.224 9.047-22.169 20.168-22.169 11.12 0 20.167 9.945 20.167 22.169 0 12.227-9.047 22.171-20.167 22.171m0-50.484c-7.806 0-14.533 3.681-19.086 9.509v-8.216h-6.218v71.447h6.218v-25.62c4.553 5.827 11.28 9.508 19.086 9.508 14.508 0 26.312-12.702 26.312-28.315 0-15.611-11.804-28.313-26.312-28.313" transform="matrix(.569771 0 0 .569771 274.267980618 199.2023638252)"/><path d="m0 67.126c-17.503 0-31.742-15.058-31.742-33.563 0-18.508 14.239-33.564 31.742-33.564s31.742 15.056 31.742 33.564c0 18.505-14.239 33.563-31.742 33.563m0-73.058c-20.773 0-37.674 17.717-37.674 39.495 0 21.776 16.901 39.495 37.674 39.495s37.674-17.719 37.674-39.495c0-21.778-16.901-39.495-37.674-39.495" transform="matrix(.569771 0 0 .569771 234.813048181 178.016454778)"/><path d="m0-54.877c-2.144.094-4.165.658-6.055 1.664-3.979 2.121-6.732 5.352-8.49 9.47-.041.098-.088.194-.132.29-.019-.003-.038-.007-.057-.011v-9.898h-.007v-.099h-6.218v53.531h6.228v-.362c0-9.629.002-18.103 0-27.732 0-3.949.62-7.157 1.913-10.287 1.197-2.898 2.871-5.471 5.271-7.527 2.822-2.418 6.057-3.456 9.763-2.866.599.095 1.194.227 1.819.348.355-1.772 1.198-4.027 1.558-5.822-1.724-.482-3.976-.769-5.593-.699" transform="matrix(.569771 0 0 .569771 338.82417446 217.91295974)"/><path d="m0-44.34c10.986 0 18.668 7.403 19.956 18.74h-39.856c1.508-10.598 9.844-18.74 19.9-18.74m0-6.143c-14.507 0-26.31 12.702-26.31 28.314s11.803 28.312 26.31 28.312c10.378 0 19.369-6.5 23.648-15.914l-5.357-3.117c-3.203 7.597-10.187 12.889-18.291 12.889-10.508 0-19.155-8.885-20.075-20.179h46.313c.043-.658.074-1.32.074-1.991 0-16.671-10.82-28.314-26.312-28.314" transform="matrix(.569771 0 0 .569771 307.426373734 215.333606423)"/><path d="m0 44.34c-11.12 0-20.167-9.944-20.167-22.171 0-12.224 9.047-22.169 20.167-22.169 11.121 0 20.168 9.945 20.168 22.169 0 12.227-9.047 22.171-20.168 22.171m19.087-49.191v8.216c-4.554-5.828-11.28-9.509-19.087-9.509-14.507 0-26.31 12.702-26.31 28.313 0 15.613 11.803 28.315 26.31 28.315 7.807 0 14.533-3.681 19.087-9.508v8.045h6.217v-53.872z" transform="matrix(.569771 0 0 .569771 356.243213472 190.0222134732)"/><path d="m0-52.958c-1.076-2.691-1.615-4.521-1.615-4.521s-.537 1.83-1.614 4.521l-13.887 35.414h31.001zm-5.167-11.196h7.104l30.033 75.35h-6.783l-9.257-23.359h-35.091l-9.256 23.359h-6.781z" transform="matrix(.569771 0 0 .569771 405.773976273 211.575396907)"/><path d="m0 20.452c0-13.132-7.966-22.819-19.591-22.819-11.626 0-19.591 9.363-19.591 22.819 0 13.457 7.965 22.82 19.591 22.82 11.625 0 19.591-9.686 19.591-22.82m5.597 26.695h-6.243v-9.444c-3.122 6.457-10.227 10.95-19.375 10.95-14.962 0-25.62-12.269-25.62-28.201 0-15.93 10.764-28.2 25.188-28.2 8.721 0 16.266 3.563 19.807 10.377v-30.83h6.243z" transform="matrix(.569771 0 0 .569771 449.930089231 191.0912748005)"/><path d="m0-7.751c10.442 1.938 17.654 6.243 17.654 15.5 0 8.181-6.565 16.577-19.483 16.577-11.41 0-18.838-6.889-22.067-15.285l5.383-3.228c2.582 8.072 8.18 13.132 16.684 13.132 8.395 0 13.241-4.521 13.241-10.873 0-6.243-4.63-9.257-14.425-10.979-10.01-1.723-17.868-6.35-17.868-15.501 0-8.395 7.965-13.669 17.76-13.669 10.656 0 17.008 5.058 20.236 12.809l-5.059 2.906c-2.798-7.212-8.502-10.334-15.069-10.334-6.565 0-12.055 3.015-12.055 8.504 0 5.813 5.812 8.719 15.068 10.441" transform="matrix(.569771 0 0 .569771 469.941586293 204.952378803)"/><path d="m.064.294.045.02.638-.286c.139-.062.235-.191.253-.342 0 0-.971.434-.964.431-.013.012-.024.027-.03.045-.004.011-.006.023-.006.034 0 .041.025.08.064.098z" fill="url(#a)" transform="matrix(0 97.957879175 -97.957879175 0 172.318855588 155.887118909)"/><path d="m0-.196c.001.07.041.137.106.171.003.001.006.003.01.004l.884.396c-.017-.137-.104-.255-.23-.311l-.58-.26-.041-.019c-.046-.02-.07-.072-.053-.119.005-.017.015-.031.027-.041-.006.002-.011.005-.017.008-.065.033-.105.1-.106.171z" fill="url(#b)" transform="matrix(0 107.688998084 -107.688998084 0 120.4118628315 146.15601025588)"/></g></svg>

<?xml version="1.0" encoding="UTF-8" standalone="no"?>
<!DOCTYPE svg PUBLIC "-//W3C//DTD SVG 1.1//EN" "http://www.w3.org/Graphics/SVG/1.1/DTD/svg11.dtd">
<svg width="100%" height="100%" viewBox="0 0 560 400" version="1.1" xmlns="http://www.w3.org/2000/svg" xmlns:xlink="http://www.w3.org/1999/xlink" xml:space="preserve" xmlns:serif="http://www.serif.com/" style="fill-rule:evenodd;clip-rule:evenodd;stroke-linejoin:round;stroke-miterlimit:2;">
    <rect x="0" y="0" width="560" height="400" style="fill:none;"/>
    <g>
        <g transform="matrix(0.569771,0,0,0.569771,80,146.156)">
            <g transform="matrix(1,0,0,1,340.958,93.1012)">
                <path d="M0,28.228C-11.121,28.228 -20.168,18.284 -20.168,6.057C-20.168,-6.167 -11.121,-16.112 0,-16.112C11.12,-16.112 20.167,-6.167 20.167,6.057C20.167,18.284 11.12,28.228 0,28.228M0,-22.256C-7.806,-22.256 -14.533,-18.575 -19.086,-12.747L-19.086,-20.963L-25.304,-20.963L-25.304,50.484L-19.086,50.484L-19.086,24.864C-14.533,30.691 -7.806,34.372 0,34.372C14.508,34.372 26.312,21.67 26.312,6.057C26.312,-9.554 14.508,-22.256 0,-22.256" style="fill-rule:nonzero;"/>
            </g>
            <g transform="matrix(1,0,0,1,271.711,55.918)">
                <path d="M0,67.126C-17.503,67.126 -31.742,52.068 -31.742,33.563C-31.742,15.055 -17.503,-0.001 0,-0.001C17.503,-0.001 31.742,15.055 31.742,33.563C31.742,52.068 17.503,67.126 0,67.126M0,-5.932C-20.773,-5.932 -37.674,11.785 -37.674,33.563C-37.674,55.339 -20.773,73.058 0,73.058C20.773,73.058 37.674,55.339 37.674,33.563C37.674,11.785 20.773,-5.932 0,-5.932" style="fill-rule:nonzero;"/>
            </g>
            <g transform="matrix(1,0,0,1,454.26,125.94)">
                <path d="M0,-54.877C-2.144,-54.783 -4.165,-54.219 -6.055,-53.213C-10.034,-51.092 -12.787,-47.861 -14.545,-43.743C-14.586,-43.645 -14.633,-43.549 -14.677,-43.453C-14.696,-43.456 -14.715,-43.46 -14.734,-43.464L-14.734,-53.362L-14.741,-53.362L-14.741,-53.461L-20.959,-53.461L-20.959,0.07L-14.731,0.07L-14.731,-0.292C-14.731,-9.921 -14.729,-18.395 -14.731,-28.024C-14.731,-31.973 -14.111,-35.181 -12.818,-38.311C-11.621,-41.209 -9.947,-43.782 -7.547,-45.838C-4.725,-48.256 -1.49,-49.294 2.216,-48.704C2.815,-48.609 3.41,-48.477 4.035,-48.356C4.39,-50.128 5.233,-52.383 5.593,-54.178C3.869,-54.66 1.617,-54.947 0,-54.877" style="fill-rule:nonzero;"/>
            </g>
            <g transform="matrix(1,0,0,1,399.154,121.413)">
                <path d="M0,-44.34C10.986,-44.34 18.668,-36.937 19.956,-25.6L-19.9,-25.6C-18.392,-36.198 -10.056,-44.34 0,-44.34M0,-50.483C-14.507,-50.483 -26.31,-37.781 -26.31,-22.169C-26.31,-6.557 -14.507,6.143 0,6.143C10.378,6.143 19.369,-0.357 23.648,-9.771L18.291,-12.888C15.088,-5.291 8.104,0.001 0,0.001C-10.508,0.001 -19.155,-8.884 -20.075,-20.178L26.238,-20.178C26.281,-20.836 26.312,-21.498 26.312,-22.169C26.312,-38.84 15.492,-50.483 0,-50.483" style="fill-rule:nonzero;"/>
            </g>
            <g transform="matrix(1,0,0,1,484.832,76.9892)">
                <path d="M0,44.34C-11.12,44.34 -20.167,34.396 -20.167,22.169C-20.167,9.945 -11.12,0 0,0C11.121,0 20.168,9.945 20.168,22.169C20.168,34.396 11.121,44.34 0,44.34M19.087,-4.851L19.087,3.365C14.533,-2.463 7.807,-6.144 0,-6.144C-14.507,-6.144 -26.31,6.558 -26.31,22.169C-26.31,37.782 -14.507,50.484 0,50.484C7.807,50.484 14.533,46.803 19.087,40.976L19.087,49.021L25.304,49.021L25.304,-4.851L19.087,-4.851Z" style="fill-rule:nonzero;"/>
            </g>
            <g transform="matrix(1,0,0,1,571.763,114.817)">
                <path d="M0,-52.958C-1.076,-55.649 -1.615,-57.479 -1.615,-57.479C-1.615,-57.479 -2.152,-55.649 -3.229,-52.958L-17.116,-17.544L13.885,-17.544L0,-52.958ZM-5.167,-64.154L1.937,-64.154L31.97,11.196L25.187,11.196L15.93,-12.163L-19.161,-12.163L-28.417,11.196L-35.198,11.196L-5.167,-64.154Z" style="fill-rule:nonzero;"/>
            </g>
            <g transform="matrix(1,0,0,1,649.261,78.8655)">
                <path d="M0,20.452C0,7.32 -7.966,-2.367 -19.591,-2.367C-31.217,-2.367 -39.182,6.996 -39.182,20.452C-39.182,33.909 -31.217,43.272 -19.591,43.272C-7.966,43.272 0,33.586 0,20.452M5.597,47.147L-0.646,47.147L-0.646,37.703C-3.768,44.16 -10.873,48.653 -20.021,48.653C-34.983,48.653 -45.641,36.384 -45.641,20.452C-45.641,4.522 -34.877,-7.748 -20.453,-7.748C-11.732,-7.748 -4.187,-4.185 -0.646,2.629L-0.646,-28.201L5.597,-28.201L5.597,47.147Z" style="fill-rule:nonzero;"/>
            </g>
            <g transform="matrix(1,0,0,1,684.383,103.193)">
                <path d="M0,-7.751C10.442,-5.813 17.654,-1.508 17.654,7.749C17.654,15.93 11.089,24.326 -1.829,24.326C-13.239,24.326 -20.667,17.437 -23.896,9.041L-18.513,5.813C-15.931,13.885 -10.333,18.945 -1.829,18.945C6.566,18.945 11.412,14.424 11.412,8.072C11.412,1.829 6.782,-1.185 -3.013,-2.907C-13.023,-4.63 -20.881,-9.257 -20.881,-18.408C-20.881,-26.803 -12.916,-32.077 -3.121,-32.077C7.535,-32.077 13.887,-27.019 17.115,-19.268L12.056,-16.362C9.258,-23.574 3.554,-26.696 -3.013,-26.696C-9.578,-26.696 -15.068,-23.681 -15.068,-18.192C-15.068,-12.379 -9.256,-9.473 0,-7.751" style="fill-rule:nonzero;"/>
            </g>
            <g transform="matrix(0,171.925,-171.925,0,162.028,17.079)">
                <path d="M0.064,0.294L0.109,0.314L0.747,0.028C0.886,-0.034 0.982,-0.163 1,-0.314C1,-0.314 0.029,0.12 0.036,0.117C0.023,0.129 0.012,0.144 0.006,0.162C0.002,0.173 0,0.185 0,0.196C0,0.237 0.025,0.276 0.064,0.294Z" style="fill:url(#_Linear1);fill-rule:nonzero;"/>
            </g>
            <g transform="matrix(0,189.004,-189.004,0,70.9265,1.75e-05)">
                <path d="M0,-0.196C0.001,-0.126 0.041,-0.059 0.106,-0.025C0.109,-0.024 0.112,-0.022 0.116,-0.021L1,0.375C0.983,0.238 0.896,0.12 0.77,0.064L0.19,-0.196L0.149,-0.215C0.103,-0.235 0.079,-0.287 0.096,-0.334C0.101,-0.351 0.111,-0.365 0.123,-0.375C0.117,-0.373 0.112,-0.37 0.106,-0.367C0.041,-0.334 0.001,-0.267 0,-0.196L0,-0.196Z" style="fill:url(#_Linear2);fill-rule:nonzero;"/>
            </g>
        </g>
    </g>
    <defs>
        <linearGradient id="_Linear1" x1="0" y1="0" x2="1" y2="0" gradientUnits="userSpaceOnUse" gradientTransform="matrix(1,0,0,-1,0,1.79148e-07)"><stop offset="0" style="stop-color:rgb(156,0,0);stop-opacity:1"/><stop offset="0.7" style="stop-color:rgb(255,75,75);stop-opacity:1"/><stop offset="1" style="stop-color:rgb(255,75,75);stop-opacity:1"/></linearGradient>
        <linearGradient id="_Linear2" x1="0" y1="0" x2="1" y2="0" gradientUnits="userSpaceOnUse" gradientTransform="matrix(1,0,0,-1,0,9.73525e-08)"><stop offset="0" style="stop-color:rgb(255,27,45);stop-opacity:1"/><stop offset="0.3" style="stop-color:rgb(255,27,45);stop-opacity:1"/><stop offset="1" style="stop-color:rgb(167,0,20);stop-opacity:1"/></linearGradient>
    </defs>
</svg>
